svgs/duotone/camera-viewfinder.svg

<svg xmlns="http://www.w3.org/2000/svg" viewBox="0 0 512 512"><!--! Font Awesome Pro 6.6.0 by @fontawesome - https://fontawesome.com License - https://fontawesome.com/license (Commercial License) Copyright 2024 Fonticons, Inc. --><path class="fa-secondary" style="fill:var(--fa-secondary-color,inherit);opacity:var(--fa-secondary-opacity,.4);" d="M0 24L0 136c0 13.3 10.7 24 24 24s24-10.7 24-24l0-88 88 0c13.3 0 24-10.7 24-24s-10.7-24-24-24L24 0C10.7 0 0 10.7 0 24zM0 376L0 488c0 13.3 10.7 24 24 24l112 0c13.3 0 24-10.7 24-24s-10.7-24-24-24l-88 0 0-88c0-13.3-10.7-24-24-24s-24 10.7-24 24zM352 24c0 13.3 10.7 24 24 24l88 0 0 88c0 13.3 10.7 24 24 24s24-10.7 24-24l0-112c0-13.3-10.7-24-24-24L376 0c-13.3 0-24 10.7-24 24zm0 464c0 13.3 10.7 24 24 24l112 0c13.3 0 24-10.7 24-24l0-112c0-13.3-10.7-24-24-24s-24 10.7-24 24l0 88-88 0c-13.3 0-24 10.7-24 24z"/><path class="fa-primary" style="fill:var(--fa-primary-color,inherit);opacity:var(--fa-primary-opacity,1);" d="M186.2 111.6L180 128l-36 0c-26.5 0-48 21.5-48 48l0 160c0 26.5 21.5 48 48 48l224 0c26.5 0 48-21.5 48-48l0-160c0-26.5-21.5-48-48-48l-36 0-6.2-16.4c-3.5-9.4-12.5-15.6-22.5-15.6l-94.7 0c-10 0-19 6.2-22.5 15.6zM256 192a64 64 0 1 1 0 128 64 64 0 1 1 0-128z"/></svg>

<svg xmlns="http://www.w3.org/2000/svg" viewBox="0 0 512 512"><!--! Font Awesome Pro 6.4.2 by @fontawesome - https://fontawesome.com License - https://fontawesome.com/license (Commercial License) Copyright 2023 Fonticons, Inc. --><path class="fa-primary" style="fill:var(--fa-primary-color,inherit);opacity:var(--fa-primary-opacity,1);" d="M186.2 111.6L180 128H144c-26.5 0-48 21.5-48 48V336c0 26.5 21.5 48 48 48H368c26.5 0 48-21.5 48-48V176c0-26.5-21.5-48-48-48H332l-6.2-16.4c-3.5-9.4-12.5-15.6-22.5-15.6H208.6c-10 0-19 6.2-22.5 15.6zM256 192a64 64 0 1 1 0 128 64 64 0 1 1 0-128z"/><path class="fa-secondary" style="fill:var(--fa-secondary-color,inherit);opacity:var(--fa-secondary-opacity,.4);" d="M24 0C10.7 0 0 10.7 0 24V136c0 13.3 10.7 24 24 24s24-10.7 24-24V48h88c13.3 0 24-10.7 24-24s-10.7-24-24-24H24zM488 0H376c-13.3 0-24 10.7-24 24s10.7 24 24 24h88v88c0 13.3 10.7 24 24 24s24-10.7 24-24V24c0-13.3-10.7-24-24-24zM0 488c0 13.3 10.7 24 24 24H136c13.3 0 24-10.7 24-24s-10.7-24-24-24H48V376c0-13.3-10.7-24-24-24s-24 10.7-24 24V488zm488 24c13.3 0 24-10.7 24-24V376c0-13.3-10.7-24-24-24s-24 10.7-24 24v88H376c-13.3 0-24 10.7-24 24s10.7 24 24 24H488z"/></svg>
